X: 33788
T: Ray Mac's
R: strathspey
M: 4/4
K: Gmajor
|:GE|DB,D<E G2gf|ece<f g2fe|deg<d ecd<B|A2 A2 A2 GE|
DB,D<E G2gf|ece<f g2fe|deg<d B<cA<B|G2 G2 G2:|
gf|ece<f g2fe|dBd<e dBcd|ecdB cAB<G|A2 A2 A2 ag|
fdf<g a2fa|gce<f g2fe|deg<d B<cA<B|G2 G2 G2 gf|
ece<f g2fe|dBd<e dBcd|ecdB cAB<G|A2 A2 A2 GE|
DB,D<E G2gf|ece<f g2fe|deg<d B<cA<B|G2 G2 G4||

